X:1
T:Gnglt nr 1
R:Gnglt
Z:C-G Magnusson, 2008-10-05
O:Mellerud, Dalsland
C:Carl Pihlstrm
M:C|
L:1/8
Q:120
K:D
A | d2 (AF) D2 (D/F/)A/d/ | f2 {g}(f/e/)f/g/ f3 A | g>f ed cA Bc | dA FB A3 A |
d2 (AF) D2 (D/F/)A/d/ | f2 {g}(f/e/)f/g/ f3 A | g>f ed cb ac |1 d2 {e}(d/c/)d/e/ d3 :|2 d2 {e}(d/c/)d/e/ d3 d |
|: [d2b2] ([db]d) [B3g3] B | Ad fb a3 A | ^GA ce =gA GA | FA df a3 d |
[d2b2] ([db]d) [B3g3] B | Ad fb a3 A | GA ce gA ce |1 [d2F2] ([dF][dF]) [d3F3] d :|2 [d2F2] ([dF][dF]) [d2F2] z |]
